;FLAVOR:Marlin
;TIME:9535
;Filament used: 16.1546m
;Layer height: 0.28
;MINX:63.7
;MINY:46.836
;MINZ:0.336
;MAXX:156.165
;MAXY:173.165
;MAXZ:20.506
;TARGET_MACHINE.NAME:Creality Ender-3 Pro
;Generated with Cura_SteamEngine 5.6.0
M82 ;absolute extrusion mode
; Ender 3 Custom Start G-code
G92 E0 ; Reset Extruder
G28 ; Home all axes
M420 S1
G1 Z5.0 F3000 ; Move Z Axis up a bit during heating to not damage bed
M104 S175 ; Start heating up the nozzle most of the way
M190 S70 ; Start heating the bed, wait until target temperature reached
M109 S213 ; Finish heating the nozzle
G1 Z2.0 F3000 ; Move Z Axis up little to prevent scratching of Heat Bed
G1 X0.1 Y20 Z0.3 F5000.0 ; Move to start position
G1 X0.1 Y200.0 Z0.3 F1500.0 E15 ; Draw the first line
G1 X0.4 Y200.0 Z0.3 F5000.0 ; Move to side a little
G1 X0.4 Y20 Z0.3 F1500.0 E30 ; Draw the second line
G92 E0 ; Reset Extruder
G1 Z2.0 F3000 ; Move Z Axis up little to prevent scratching of Heat Bed
G1 X5 Y20 Z0.3 F5000.0 ; Move over to prevent blob squish
G92 E0
G92 E0
G1 F1500 E-6.5
;LAYER_COUNT:68
;LAYER:-5
M107
G0 F13500 X66.94 Y53.584 Z0.336
;TYPE:SUPPORT-INTERFACE
G1 F1500 E0
G1 F2025 X67.677 Y52.705 E0.12819
G1 X68.299 Y52.059 E0.22841
G1 X69.094 Y51.338 E0.34835
G1 X69.934 Y50.683 E0.46739
G1 X70.825 Y50.083 E0.58743
G1 X71.892 Y49.484 E0.72418
G1 X72.711 Y49.099 E0.82532
G1 X73.704 Y48.715 E0.9443
G1 X74.71 Y48.405 E1.06194
G1 X75.78 Y48.159 E1.18463
G1 X76.804 Y48.003 E1.30039
G1 X78.06 Y47.908 E1.44115
G1 X78.461 Y47.901 E1.48597
G1 X90.707 Y47.901 E2.85451
G1 X91.845 Y47.949 E2.9818
G1 X92.908 Y48.071 E3.10138
G1 X93.937 Y48.268 E3.21846
G1 X94.824 Y48.5 E3.32092
G1 X95.18 Y48.614 E3.3627
G1 X95.843 Y48.793 E3.43944
G1 X96.486 Y48.884 E3.51202
G1 X96.908 Y48.9 E3.55921
G1 X140.507 Y48.901 E8.43157
G1 X141.645 Y48.949 E8.55886
G1 X142.708 Y49.071 E8.67844
G1 X143.736 Y49.268 E8.79541
G1 X144.804 Y49.554 E8.91897
G1 X145.803 Y49.902 E9.03719
G1 X146.693 Y50.28 E9.14525
G1 X147.705 Y50.806 E9.27271
G1 X148.471 Y51.272 E9.37291
G1 X149.416 Y51.94 E9.50224
G1 X150.295 Y52.677 E9.63043
G1 X150.941 Y53.299 E9.73065
G1 X151.654 Y54.084 E9.84916
G1 X152.317 Y54.934 E9.96963
G1 X152.917 Y55.825 E10.08968
G1 X153.516 Y56.892 E10.22642
G1 X153.898 Y57.704 E10.32671
G1 X154.281 Y58.692 E10.44513
G1 X154.621 Y59.797 E10.57433
G1 X154.867 Y60.915 E10.70226
G1 X155.015 Y61.976 E10.82198
G1 X155.092 Y63.048 E10.94209
G1 X155.099 Y63.449 E10.98691
G1 X155.1 Y156.486 E21.38417
G1 X155.063 Y157.485 E21.49589
G1 X154.929 Y158.71 E21.6336
G1 X154.732 Y159.736 E21.75036
G1 X154.45 Y160.793 E21.87261
G1 X154.098 Y161.804 E21.99225
G1 X153.723 Y162.688 E22.09956
G1 X153.194 Y163.705 E22.22767
G1 X152.728 Y164.471 E22.32787
G1 X152.06 Y165.416 E22.4572
G1 X151.323 Y166.295 E22.58539
G1 X150.701 Y166.941 E22.68561
G1 X149.906 Y167.662 E22.80555
G1 X149.066 Y168.317 E22.92459
G1 X148.182 Y168.912 E23.04367
G1 X147.108 Y169.516 E23.18137
G1 X146.291 Y169.9 E23.28226
G1 X145.296 Y170.285 E23.40149
G1 X144.29 Y170.595 E23.51913
G1 X143.22 Y170.841 E23.64182
G1 X142.196 Y170.997 E23.75758
G1 X140.94 Y171.092 E23.89835
G1 X140.436 Y171.1 E23.95468
G1 X96.924 Y171.1 E28.81732
G1 X96.253 Y171.141 E28.89245
G1 X95.403 Y171.32 E28.98952
G1 X94.468 Y171.601 E29.09863
G1 X93.421 Y171.841 E29.21867
G1 X92.396 Y171.997 E29.33454
G1 X91.14 Y172.092 E29.4753
G1 X90.636 Y172.1 E29.53163
G1 X78.493 Y172.099 E30.88866
G1 X77.355 Y172.051 E31.01595
G1 X76.291 Y171.929 E31.13563
G1 X75.264 Y171.732 E31.2525
G1 X74.196 Y171.446 E31.37606
G1 X73.188 Y171.094 E31.49538
G1 X72.401 Y170.76 E31.59092
G1 X71.43 Y170.269 E31.71252
G1 X70.528 Y169.727 E31.83012
G1 X69.58 Y169.058 E31.95978
G1 X68.702 Y168.319 E32.08803
G1 X68.049 Y167.691 E32.18928
G1 X67.342 Y166.91 E32.30701
G1 X66.683 Y166.066 E32.42668
G1 X66.079 Y165.169 E32.54753
G1 X65.482 Y164.103 E32.68407
G1 X65.1 Y163.29 E32.78445
G1 X64.714 Y162.293 E32.90393
G1 X64.379 Y161.204 E33.03126
G1 X64.131 Y160.07 E33.16098
G1 X63.999 Y159.18 E33.26153
G1 X63.908 Y157.941 E33.40037
G1 X63.901 Y157.55 E33.44407
G1 X63.898 Y142.483 E35.12787
G1 X63.835 Y141.672 E35.21878
G1 X63.799 Y141.388 E35.25077
G1 X63.715 Y140.413 E35.36013
G1 X63.7 Y139.727 E35.43681
G1 X63.701 Y133.092 E36.1783
G1 X63.737 Y132.091 E36.29024
G1 X63.841 Y131.085 E36.40326
G1 X63.899 Y130.31 E36.49011
G1 X63.901 Y82.924 E41.78569
G1 X63.846 Y82.167 E41.87051
G1 X63.737 Y81.113 E41.98893
G1 X63.7 Y80.12 E42.09998
G1 X63.701 Y73.487 E42.84124
G1 X63.737 Y72.486 E42.95318
G1 X63.841 Y71.488 E43.06532
G1 X63.899 Y70.705 E43.15306
G1 X63.901 Y62.514 E44.06844
G1 X63.937 Y61.515 E44.18015
G1 X64.071 Y60.29 E44.31787
G1 X64.268 Y59.264 E44.43462
G1 X64.55 Y58.206 E44.55698
G1 X64.902 Y57.196 E44.67651
G1 X65.277 Y56.312 E44.78383
G1 X65.806 Y55.295 E44.91194
G1 X66.272 Y54.529 E45.01214
G1 X66.94 Y53.584 E45.14146
G0 F13500 X67.323 Y53.747
G1 F2025 X154.7 Y141.123 E58.9508
G1 F1500 E52.4508
G0 F13500 X154.7 Y143.386
G1 F1500 E58.9508
G1 F2025 X66.4 Y55.086 E72.9061
G1 F1500 E66.4061
G0 F13500 X65.606 Y56.555
G1 F1500 E72.9061
G1 F2025 X154.7 Y145.649 E86.98688
G1 F1500 E80.48688
G0 F13500 X154.7 Y147.911
G1 F1500 E86.98688
G1 F2025 X64.978 Y58.189 E101.16691
G1 F1500 E94.66691
G0 F13500 X64.531 Y60.006
G1 F1500 E101.16691
G1 F2025 X154.7 Y150.174 E115.41751
G1 F1500 E108.91751
G0 F13500 X154.7 Y152.437
G1 F1500 E115.41751
G1 F2025 X64.316 Y62.053 E129.70217
G1 F1500 E123.20217
G0 F13500 X64.3 Y64.3
G1 F1500 E129.70217
G1 F2025 X154.7 Y154.7 E143.98936
G1 F1500 E137.48936
G0 F13500 X154.683 Y156.945
G1 F1500 E143.98936
G1 F2025 X64.3 Y66.562 E158.27386
G1 F1500 E151.77386
G0 F13500 X64.3 Y68.825
G1 F1500 E158.27386
G1 F2025 X154.467 Y158.992 E172.52422
G1 F1500 E166.02422
G0 F13500 X154.02 Y160.808
G1 F1500 E172.52422
G1 F2025 X64.273 Y71.061 E186.7082
G1 F1500 E180.2082
G0 F13500 X64.112 Y73.163
G1 F1500 E186.7082
G1 F2025 X153.392 Y162.443 E200.81838
G1 F1500 E194.31838
G0 F13500 X152.599 Y163.913
G1 F1500 E200.81838
G1 F2025 X64.1 Y75.414 E214.80512
G1 F1500 E208.30512
G0 F13500 X64.099 Y77.676
G1 F1500 E214.80512
G1 F2025 X151.675 Y165.252 E228.64599
G1 F1500 E222.14599
G0 F13500 X150.614 Y166.453
G1 F1500 E228.64599
G1 F2025 X64.099 Y79.939 E242.3191
G1 F1500 E235.8191
G0 F13500 X64.261 Y82.363
G1 F1500 E242.3191
G1 F2025 X149.425 Y167.527 E255.77877
G1 F1500 E249.27877
G0 F13500 X148.111 Y168.475
G1 F1500 E255.77877
G1 F2025 X64.3 Y84.664 E269.0246
G1 F1500 E262.5246
G0 F13500 X64.3 Y86.927
G1 F1500 E269.0246
G1 F2025 X146.656 Y169.284 E282.04056
G1 F1500 E275.54056
G0 F13500 X145.05 Y169.941
G1 F1500 E282.04056
G1 F2025 X64.3 Y89.19 E294.8027
G1 F1500 E288.3027
G0 F13500 X64.3 Y91.452
G1 F1500 E294.8027
G1 F2025 X143.266 Y170.419 E307.28289
G1 F1500 E300.78289
G0 F13500 X141.25 Y170.665
G1 F1500 E307.28289
G1 F2025 X64.3 Y93.715 E319.44438
G1 F1500 E312.94438
G0 F13500 X64.299 Y95.977
G1 F1500 E319.44438
G1 F2025 X139.02 Y170.699 E331.25367
G1 F1500 E324.75367
G0 F13500 X136.757 Y170.699
G1 F1500 E331.25367
G1 F2025 X64.299 Y98.24 E342.70531
G1 F1500 E336.20531
G0 F13500 X64.299 Y100.503
G1 F1500 E342.70531
G1 F2025 X134.495 Y170.699 E353.79938
G1 F1500 E347.29938
G0 F13500 X132.232 Y170.699
G1 F1500 E353.79938
G1 F2025 X64.299 Y102.765 E364.53587
G1 F1500 E358.03587
G0 F13500 X64.299 Y105.028
G1 F1500 E364.53587
G1 F2025 X129.969 Y170.699 E374.9147
G1 F1500 E368.4147
G0 F13500 X127.707 Y170.699
G1 F1500 E374.9147
G1 F2025 X64.298 Y107.29 E384.93612
G1 F1500 E378.43612
G0 F13500 X64.298 Y109.553
G1 F1500 E384.93612
G1 F2025 X125.444 Y170.699 E394.59988
G1 F1500 E388.09988
G0 F13500 X123.181 Y170.699
G1 F1500 E394.59988
G1 F2025 X64.298 Y111.816 E403.90599
G1 F1500 E397.40599
G0 F13500 X64.298 Y114.078
G1 F1500 E403.90599
G1 F2025 X120.918 Y170.699 E412.85453
G1 F1500 E406.35453
G0 F13500 X118.656 Y170.699
G1 F1500 E412.85453
G1 F2025 X64.298 Y116.341 E421.44549
G1 F1500 E414.94549
G0 F13500 X64.297 Y118.603
G1 F1500 E421.44549
G1 F2025 X116.393 Y170.699 E429.67896
G1 F1500 E423.17896
G0 F13500 X114.13 Y170.699
G1 F1500 E429.67896
G1 F2025 X64.297 Y120.866 E437.55477
G1 F1500 E431.05477
G0 F13500 X64.297 Y123.129
G1 F1500 E437.55477
G1 F2025 X111.867 Y170.699 E445.07293
G1 F1500 E438.57293
G0 F13500 X109.605 Y170.699
G1 F1500 E445.07293
G1 F2025 X64.297 Y125.391 E452.23359
G1 F1500 E445.73359
G0 F13500 X64.297 Y127.654
G1 F1500 E452.23359
G1 F2025 X107.342 Y170.699 E459.0366
G1 F1500 E452.5366
G0 F13500 X105.079 Y170.699
G1 F1500 E459.0366
G1 F2025 X64.297 Y129.917 E465.48195
G1 F1500 E458.98195
G0 F13500 X64.145 Y132.027
G1 F1500 E465.48195
G1 F2025 X102.816 Y170.699 E471.59375
G1 F1500 E465.09375
G0 F13500 X100.554 Y170.699
G1 F1500 E471.59375
G1 F2025 X64.1 Y134.245 E477.35509
G1 F1500 E470.85509
G0 F13500 X64.099 Y136.507
G1 F1500 E477.35509
G1 F2025 X98.291 Y170.699 E482.75894
G1 F1500 E476.25894
G0 F13500 X96.094 Y170.764
G1 F1500 E482.75894
G1 F2025 X64.099 Y138.77 E487.81548
G1 F1500 E481.31548
G0 F13500 X64.177 Y141.11
G1 F1500 E487.81548
G1 F2025 X94.295 Y171.228 E492.57545
G1 F1500 E486.07545
G0 F13500 X92.394 Y171.59
G1 F1500 E492.57545
G1 F2025 X64.297 Y143.493 E497.01601
G1 F1500 E490.51601
G0 F13500 X64.298 Y145.757
G1 F1500 E497.01601
G1 F2025 X90.24 Y171.698 E501.11592
G1 F1500 E494.61592
G0 F13500 X87.977 Y171.698
G1 F1500 E501.11592
G1 F2025 X64.298 Y148.02 E504.85816
G1 F1500 E498.35816
G0 F13500 X64.299 Y150.283
G1 F1500 E504.85816
G1 F2025 X85.714 Y171.698 E508.24268
G1 F1500 E501.74268
G0 F13500 X83.451 Y171.698
G1 F1500 E508.24268
G1 F2025 X64.3 Y152.546 E511.26946
G1 F1500 E504.76946
G0 F13500 X64.3 Y154.81
G1 F1500 E511.26946
G1 F2025 X81.188 Y171.698 E513.93851
G1 F1500 E507.43851
G0 F13500 X78.925 Y171.698
G1 F1500 E513.93851
G1 F2025 X64.3 Y157.073 E516.2499
G1 F1500 E509.7499
G0 F13500 X64.448 Y159.483
G1 F1500 E516.2499
G1 F2025 X76.516 Y171.551 E518.15718
G1 F1500 E511.65718
G0 F13500 X73.47 Y170.768
G1 F1500 E518.15718
G1 F2025 X65.236 Y162.534 E519.45851
G1 F1500 E512.95851
G0 F13500 X63.867 Y163.06
G0 X64.622 Y164.757
G0 X65.701 Y166.523
G0 X66.532 Y167.603
G0 X67.986 Y169.108
G0 X69.019 Y169.966
G0 X70.757 Y171.113
G0 X71.962 Y171.731
G0 X73.88 Y172.464
G0 X75.184 Y172.806
G0 X77.269 Y173.113
G0 X78.513 Y173.164
G0 X91.39 Y173.146
G0 X141.19 Y172.146
G0 X143.258 Y171.917
G0 X144.573 Y171.621
G0 X146.539 Y170.95
G0 X147.757 Y170.378
G0 X149.523 Y169.299
G0 X150.603 Y168.468
G0 X152.108 Y167.014
G0 X152.966 Y165.981
G0 X154.113 Y164.243
G0 X154.731 Y163.038
G0 X155.464 Y161.12
G0 X155.806 Y159.816
G0 X156.113 Y157.731
G0 X156.127 Y157.385
G0 X156.165 Y138.86
G0 X154.7 Y138.86
G1 F1500 E519.45851
G1 F2025 X68.385 Y52.545 E533.10009
G1 F1500 E526.60009
G0 F13500 X69.573 Y51.471
G1 F1500 E533.10009
G1 F2025 X154.7 Y136.598 E546.55391
G1 F1500 E540.05391
G0 F13500 X154.7 Y134.335
G1 F1500 E546.55391
G1 F2025 X70.888 Y50.523 E559.7999
G1 F1500 E553.2999
G0 F13500 X72.341 Y49.714
G1 F1500 E559.7999
G1 F2025 X154.7 Y132.072 E572.81618
G1 F1500 E566.31618
G0 F13500 X154.7 Y129.809
G1 F1500 E572.81618
G1 F2025 X73.948 Y49.058 E585.57847
G1 F1500 E579.07847
G0 F13500 X75.733 Y48.58
G1 F1500 E585.57847
G1 F2025 X154.7 Y127.547 E598.05874
G1 F1500 E591.55874
G0 F13500 X154.7 Y125.284
G1 F1500 E598.05874
G1 F2025 X77.749 Y48.333 E610.22039
G1 F1500 E603.72039
G0 F13500 X79.979 Y48.301
G1 F1500 E610.22039
G1 F2025 X154.7 Y123.021 E622.02953
G1 F1500 E615.52953
G0 F13500 X154.7 Y120.758
G1 F1500 E622.02953
G1 F2025 X82.242 Y48.301 E633.48101
G1 F1500 E626.98101
G0 F13500 X84.504 Y48.301
G1 F1500 E633.48101
G1 F2025 X154.7 Y118.496 E644.57499
G1 F1500 E638.07499
G0 F13500 X154.7 Y116.233
G1 F1500 E644.57499
G1 F2025 X86.767 Y48.301 E655.31132
G1 F1500 E648.81132
G0 F13500 X89.03 Y48.301
G1 F1500 E655.31132
G1 F2025 X154.7 Y113.97 E665.69
G1 F1500 E659.19
G0 F13500 X154.7 Y111.708
G1 F1500 E665.69
G1 F2025 X91.319 Y48.327 E675.70699
G1 F1500 E669.20699
G0 F13500 X93.936 Y48.681
G1 F1500 E675.70699
G1 F2025 X154.699 Y109.444 E685.31023
G1 F1500 E678.81023
G0 F13500 X154.699 Y107.181
G1 F1500 E685.31023
G1 F2025 X96.814 Y49.297 E694.45853
G1 F1500 E687.95853
G0 F13500 X99.08 Y49.3
G1 F1500 E694.45853
G1 F2025 X154.699 Y104.919 E703.24879
G1 F1500 E696.74879
G0 F13500 X154.699 Y102.656
G1 F1500 E703.24879
G1 F2025 X101.343 Y49.3 E711.68139
G1 F1500 E705.18139
G0 F13500 X103.605 Y49.3
G1 F1500 E711.68139
G1 F2025 X154.699 Y100.393 E719.75641
G1 F1500 E713.25641
G0 F13500 X154.699 Y98.13
G1 F1500 E719.75641
G1 F2025 X105.868 Y49.3 E727.47379
G1 F1500 E720.97379
G0 F13500 X108.131 Y49.3
G1 F1500 E727.47379
G1 F2025 X154.699 Y95.868 E734.83358
G1 F1500 E728.33358
G0 F13500 X154.699 Y93.605
G1 F1500 E734.83358
G1 F2025 X110.394 Y49.3 E741.83573
G1 F1500 E735.33573
G0 F13500 X112.656 Y49.3
G1 F1500 E741.83573
G1 F2025 X154.699 Y91.342 E748.4803
G1 F1500 E741.9803
G0 F13500 X154.699 Y89.079
G1 F1500 E748.4803
G1 F2025 X114.919 Y49.3 E754.76721
G1 F1500 E748.26721
G0 F13500 X117.182 Y49.3
G1 F1500 E754.76721
G1 F2025 X154.699 Y86.817 E760.69655
G1 F1500 E754.19655
G0 F13500 X154.699 Y84.554
G1 F1500 E760.69655
G1 F2025 X119.445 Y49.3 E766.26824
G1 F1500 E759.76824
G0 F13500 X121.708 Y49.3
G1 F1500 E766.26824
G1 F2025 X154.699 Y82.291 E771.48227
G1 F1500 E764.98227
G0 F13500 X154.699 Y80.028
G1 F1500 E771.48227
G1 F2025 X123.971 Y49.3 E776.33865
G1 F1500 E769.83865
G0 F13500 X126.234 Y49.3
G1 F1500 E776.33865
G1 F2025 X154.699 Y77.766 E780.83745
G1 F1500 E774.33745
G0 F13500 X154.699 Y75.503
G1 F1500 E780.83745
G1 F2025 X128.496 Y49.3 E784.97868
G1 F1500 E778.47868
G0 F13500 X130.759 Y49.3
G1 F1500 E784.97868
G1 F2025 X154.699 Y73.24 E788.76226
G1 F1500 E782.26226
G0 F13500 X154.699 Y70.977
G1 F1500 E788.76226
G1 F2025 X133.022 Y49.3 E792.18818
G1 F1500 E785.68818
G0 F13500 X135.285 Y49.3
G1 F1500 E792.18818
G1 F2025 X154.699 Y68.715 E795.25653
G1 F1500 E788.75653
G0 F13500 X154.699 Y66.452
G1 F1500 E795.25653
G1 F2025 X137.547 Y49.3 E797.9673
G1 F1500 E791.4673
G0 F13500 X139.81 Y49.3
G1 F1500 E797.9673
G1 F2025 X154.699 Y64.189 E800.32042
G1 F1500 E793.82042
G0 F13500 X154.589 Y61.816
G1 F1500 E800.32042
G1 F2025 X142.187 Y49.414 E802.28048
G1 F1500 E795.78048
G0 F13500 X145.125 Y50.09
G1 F1500 E802.28048
G1 F2025 X153.921 Y58.886 E803.67064
M104 S213
G1 F1500 E797.17064
G0 F300 X153.921 Y58.886 Z0.756
G0 F13500 X155.287 Y58.341
G0 X154.466 Y56.414
G0 X153.819 Y55.26
G0 X152.599 Y53.556
G0 X151.703 Y52.555
G0 X150.148 Y51.162
G0 X149.043 Y50.374
G0 X147.249 Y49.368
G0 X145.985 Y48.831
G0 X143.988 Y48.232
G0 X142.672 Y47.991
G0 X140.487 Y47.836
G0 X90.687 Y46.836
G0 X77.81 Y46.854
G0 X75.742 Y47.083
G0 X74.427 Y47.379
G0 X72.461 Y48.05
G0 X72.116 Y48.212
G0 X70.418 Y49.085
G0 X71.028 Y50.427
;TIME_ELAPSED:283.582517
;LAYER:-4
;TYPE:SUPPORT
G1 F1500 E803.67064
G1 F2025 X70.157 Y51.012 E803.81721
G1 X69.358 Y51.635 E803.95874
G1 X68.576 Y52.347 E804.10648
G1 X67.981 Y52.963 E804.22611
G1 X67.315 Y53.755 E804.37067
G1 X66.653 Y54.67 E804.52843
G1 X66.197 Y55.425 E804.65164
G1 X71.407 Y50.214 E805.681
G1 X72.079 Y49.838 E805.78857
G1 X72.858 Y49.472 E805.90881
G1 X74.002 Y49.034 E806.07993
G1 X65.048 Y57.987 E807.84874
G1 X64.883 Y58.484 E807.92189
G1 X64.655 Y59.355 E808.04766
G1 X64.552 Y59.898 E808.12487
G1 X75.908 Y48.542 E810.3683
G1 X76.849 Y48.399 E810.50126
G1 X77.515 Y48.349 E810.59456
G1 X64.34 Y61.524 E813.19735
G1 X64.299 Y62.53 E813.338
G1 X64.3 Y62.979 E813.40072
G1 X78.979 Y48.299 E816.30073
G1 X80.393 Y48.299 E816.49825
G1 X64.3 Y64.393 E819.67761
G1 X64.3 Y65.807 E819.87513
